muebles/img/check.svg

<svg width="45" height="45" viewBox="0 0 45 45" fill="none" xmlns="http://www.w3.org/2000/svg">
<path d="M20.9171 30.5842C20.4083 30.5842 19.956 30.3581 19.6733 30.0189L11.1369 20.7475C10.515 20.0692 10.5716 18.995 11.25 18.3732C11.9283 17.7513 13.0025 17.8079 13.6243 18.4862L20.9736 26.4573L41.3254 6.16208C42.0037 5.48373 43.0779 5.48373 43.6998 6.16208C44.3216 6.84043 44.3781 7.91461 43.6998 8.53647L22.1043 30.0754C21.8216 30.4147 21.3694 30.5842 20.9171 30.5842Z" fill="#FFBD3B"/>
<path d="M22.5001 45C10.1193 45 0 34.8807 0 22.5001C0 10.1194 10.1193 0 22.5001 0C23.4611 0 24.196 0.734943 24.196 1.69593C24.196 2.65692 23.461 3.39186 22.5001 3.39186C11.9849 3.39186 3.39197 11.9848 3.39197 22.4999C3.39197 33.0151 11.9849 41.608 22.5001 41.608C33.0152 41.608 41.6081 33.0151 41.6081 22.4999C41.6081 21.5389 42.3431 20.804 43.3041 20.804C44.2651 20.804 45 21.539 45 22.4999C45 34.8807 34.8807 45 22.5001 45Z" fill="black"/>
</svg>

<svg width="45" height="45" fill="none" xmlns="http://www.w3.org/2000/svg"><path d="M20.917 30.584a1.62 1.62 0 01-1.244-.565l-8.536-9.271c-.622-.679-.565-1.753.113-2.375.678-.622 1.752-.565 2.374.113l7.35 7.971L41.325 6.162c.679-.678 1.753-.678 2.375 0 .622.678.678 1.753 0 2.374l-21.596 21.54c-.282.339-.735.508-1.187.508z" fill="#FFBD3B"/><path d="M22.5 45C10.12 45 0 34.88 0 22.5S10.12 0 22.5 0c.961 0 1.696.735 1.696 1.696 0 .96-.735 1.696-1.696 1.696-10.515 0-19.108 8.593-19.108 19.108S11.985 41.608 22.5 41.608 41.608 33.015 41.608 22.5c0-.961.735-1.696 1.696-1.696S45 21.539 45 22.5C45 34.88 34.88 45 22.5 45z" fill="#000"/></svg>
